boxicons/svg/regular/bx-hdd.svg

<svg xmlns="http://www.w3.org/2000/svg" width="24" height="24" viewBox="0 0 24 24"><path d="m21.983 13.821-1.851-10.18A1.998 1.998 0 0 0 18.165 2H5.835a2 2 0 0 0-1.968 1.643l-1.85 10.178.019.003c-.012.06-.036.114-.036.176v5c0 1.103.897 2 2 2h16c1.103 0 2-.897 2-2v-5c0-.063-.024-.116-.035-.176l.018-.003zM5.835 4h12.331l1.637 9H4.198l1.637-9zM4 19v-4h16l.002 4H4z"/><path d="M17 16h2v2h-2zm-3 0h2v2h-2z"/></svg>

<svg xmlns="http://www.w3.org/2000/svg" width="24" height="24" viewBox="0 0 24 24"><path d="M21.983,13.821l-1.851-10.18C19.959,2.69,19.132,2,18.165,2H5.835C4.868,2,4.041,2.69,3.867,3.643L2.017,13.821 l0.019,0.003C2.024,13.884,2,13.938,2,14v5c0,1.103,0.897,2,2,2h16c1.103,0,2-0.897,2-2v-5c0-0.063-0.024-0.116-0.035-0.176 L21.983,13.821z M5.835,4h12.331l1.637,9H4.198L5.835,4z M4,19v-4h16l0.002,4H4z"/><path d="M17 16H19V18H17zM14 16H16V18H14z"/></svg>
